components/Common/Svg/svgs/codeDevelopment.svg

<svg width="90" height="90" viewBox="0 0 90 90" fill="none" xmlns="http://www.w3.org/2000/svg">
<circle opacity="0.7" cx="45" cy="45" r="45" fill="#FFE603"/>
<path fill-rule="evenodd" clip-rule="evenodd" d="M49.3033 31.9107C49.4373 31.3749 49.1115 30.832 48.5757 30.6981C48.0399 30.5641 47.497 30.8899 47.363 31.4257L40.6964 58.092C40.5624 58.6278 40.8882 59.1707 41.424 59.3047C41.9598 59.4386 42.5027 59.1129 42.6366 58.5771L49.3033 31.9107ZM37.3738 37.6277C37.7643 38.0182 37.7643 38.6513 37.3738 39.0419L31.4142 45.0014L37.3738 50.9608C37.7643 51.3514 37.7643 51.9845 37.3738 52.375C36.9832 52.7656 36.3501 52.7656 35.9596 52.375L29.2929 45.7085C29.1054 45.5209 29 45.2666 29 45.0014C29 44.7361 29.1054 44.4818 29.2929 44.2943L35.9596 37.6277C36.3501 37.2372 36.9832 37.2372 37.3738 37.6277ZM52.6264 37.6277C53.0169 37.2372 53.6501 37.2372 54.0406 37.6277L60.7073 44.2943C60.8948 44.4818 61.0002 44.7361 61.0002 45.0014C61.0002 45.2666 60.8948 45.5209 60.7073 45.7085L54.0406 52.375C53.6501 52.7656 53.0169 52.7656 52.6264 52.375C52.2359 51.9845 52.2359 51.3514 52.6264 50.9608L58.5859 45.0014L52.6264 39.0419C52.2359 38.6513 52.2359 38.0182 52.6264 37.6277Z" fill="#161616"/>
</svg>

<svg width="90" height="90" viewBox="0 0 90 90" fill="none" xmlns="http://www.w3.org/2000/svg"><circle opacity=".7" cx="45" cy="45" r="45" fill="#FFE603"/><path fill-rule="evenodd" clip-rule="evenodd" d="M49.303 31.91a1 1 0 1 0-1.94-.484l-6.667 26.666a1 1 0 1 0 1.94.485l6.667-26.666Zm-11.93 5.718a1 1 0 0 1 0 1.414l-5.959 5.96 5.96 5.959a1 1 0 0 1-1.414 1.414l-6.667-6.666a1 1 0 0 1 0-1.415l6.667-6.666a1 1 0 0 1 1.414 0Zm15.253 0a1 1 0 0 1 1.415 0l6.666 6.666a1 1 0 0 1 0 1.415l-6.666 6.666a1 1 0 1 1-1.415-1.414l5.96-5.96-5.96-5.96a1 1 0 0 1 0-1.413Z" fill="#161616"/></svg>
